!!!!SEGMENT: offering-001.krn
!!!COM: Bach, Johann Sebastian
!!!CDT: 1685/03/31-1750/07/28
!!!OPR@@DE: Musicalisches Opfer
!!!OPR@EN: Musical Offering
!!!OTL: Ricarcare in C minor, a 3.
!!!ONB: Regis issu cantio et reliqua canonica arte resoluta
!!!SCA: BWV 1079
!!!voices: 3
!!!AGN: Ricercare
**kern	**kern	**kern
*part3	*part2	*part1
*staff3	*staff2	*staff1
*I"	*I"	*I"
*clefF4	*clefG2	*clefG2
*k[b-e-a-]	*k[b-e-a-]	*k[b-e-a-]
*c:	*c:	*c:
*M4/4	*M4/4	*M4/4
*met(c|)	*met(c|)	*met(c|)
*MM120	*MM120	*MM120
=1	=1	=1
1r	1r	2cc
.	.	2ee-
=2	=2	=2
1r	1r	2gg
.	.	2aa-
=3	=3	=3
1r	1r	2bn
.	.	4r
.	.	4gg
=4	=4	=4
1r	1r	2ff#X
.	.	2ffn
=5	=5	=5
1r	1r	2een
.	.	[2ee-X
=6	=6	=6
1r	1r	4ee-]
.	.	4dd
.	.	4dd-X
.	.	4cc
=7	=7	=7
1r	1r	4bn
.	.	8anL
.	.	8gJ
.	.	4cc
.	.	4ff
=8	=8	=8
1r	1r	2ee-
.	.	2ddt
=9	=9	=9
1r	1r	4cc
.	.	4ccc'
.	.	4ff#X'
.	.	4aan'
=10	=10	=10
1r	2g	4b-'
.	.	4ddd'
.	2b-	4gg'
.	.	4bb-'
!!LO:LB:g=original
=11	=11	=11
1r	2cc	4ee-'
.	.	4gg'
.	2ee-	4cc
.	.	[4ccc
=12	=12	=12
1r	2f#X	4ccc]
.	.	8bb-L
.	.	8aanJ
.	4r	8bb-L
.	.	8aa
.	4dd	8gg
.	.	8ffnJ
=13	=13	=13
1r	2cc#X	8eenL
.	.	8ddJ
.	.	2ee
.	2ccn	.
.	.	4ff#X
=14	=14	=14
1r	2bn	8ggL
.	.	8dd
.	.	8gg
.	.	8aanJ
.	[2b-X	8ggL
.	.	8ffn
.	.	8ee-X
.	.	8ddJ
=15	=15	=15
1r	4b-]	[2cc
.	4an	.
.	4a-X	8ccL]
.	.	8dd
.	4g	8ee-
.	.	8ccJ
=16	=16	=16
1r	4f#X	4dd
.	8enL	4ccc
.	8dJ	.
.	4g	4bb-
.	4cc	4aan
=17	=17	=17
1r	2b-	4ddd
.	.	[4gg
.	2an	4gg]
.	.	4ff#X
!!LO:LB:g=original
=18	=18	=18
1r	2g	4gg'
.	.	4bb-'
.	4r	4een'
.	[4b-	4gg'
=19	=19	=19
1r	4b-]	4cc
.	8a-XL	8ddL
.	8gJ	8eenJ
.	8a-L	[2ff
.	8g	.
.	8f	.
.	8e-XJ	.
=20	=20	=20
1r	8dL	4ff]
.	8e-	.
.	8f	4aa-
.	8gJ	.
.	8a-L	4dd
.	8gJ	.
.	[4a-	4ff
=21	=21	=21
1r	4a-]	4b-
.	8gL	8ccL
.	8fJ	8ddJ
.	8gL	[2ee-
.	8f	.
.	8e-	.
.	8dJ	.
=22	=22	=22
1r	4c	4ee-]
.	8dL	8ddL
.	8e-J	8ccJ
.	8fL	8ddL
.	8e-J	8cc
.	[4f	8bn
.	.	8anJ
=23	=23	=23
2C	2f_	4g
.	.	8anL
.	.	8bnJ
2E-	4.f]	8ccL
.	.	8bJ
.	.	[4cc
.	8e-	.
!!LO:LB:g=original
=24	=24	=24
2G	4d'	4cc]
.	4g'	2b-X
2A-	4c'	.
.	[4f	4a-
=25	=25	=25
2BBn	4f]	2g
.	8e-L	.
.	8dJ	.
4r	8e-L	2r
.	8d	.
4G	8c	.
.	8B-XJ	.
*	*clefF4	*
=26	=26	=26
2F#X	8AnL	8r
.	8GJ	8ee-L
.	2A	8dd
.	.	8ccJ
2Fn	.	8ddL
.	.	8ff
.	4Bn	8ee-
.	.	8ddJ
=27	=27	=27
2En	8cL	[2gg
.	8G	.
.	8c	.
.	8dJ	.
[2E-X	8cL	8ggL]
.	8B-X	8dd-X
.	8A-X	8cc
.	8GJ	8b-J
=28	=28	=28
4E-]	[2F	8anL
.	.	8g
4D	.	8a
.	.	8ccJ
4D-X	8FL]	[2ff
.	8G	.
4C	8A-X	.
.	8FJ	.
=29	=29	=29
4BBn	4G	4ff]
*	*clefG2	*
8AAnL	4f	4bn
8GGJ	.	.
4C	4e-	8r
.	.	4cc
4F	4d	.
.	.	8b
!!LO:LB:g=original
=30	=30	=30
2E-	4g	8ccL
.	.	8b-X
*	*clefF4	*
.	2c	8a-
.	.	8gJ
2D	.	8fL
.	.	8a-
.	4Bn	8g
.	.	8fJ
*	*clefG2	*
=31	=31	=31
8CL	4c	4e-
8D	.	.
8E-	2cc	4ee-
8FJ	.	.
8GL	.	4dd
8E-	.	.
8F	[4b-	4dd-X
8GJ	.	.
=32	=32	=32
4A-	8b-L]	4cc
.	8a-	.
4B-	8g	2b-
.	8fJ	.
8cL	8e-L	.
8B-J	8g-X	.
4c	8f	4an
.	8e-J	.
=33	=33	=33
8B-L	4f	4dd
8C	.	.
8D-X	2b-	4dd-X
8E-J	.	.
8FL	.	4cc
8Dn	.	.
8E-	[4a-X	4cc-X
8FJ	.	.
=34	=34	=34
4G	8a-L]	4b-
.	8g	.
4A-	8f	2a-
.	8e-J	.
8B-L	8d-XL	.
8A-J	8f-X	.
4B-	8e-	4g
.	8d-J	.
!!LO:LB:g=original
=35	=35	=35
8A-L	4e-	4cc
8BB-	.	.
8C-X	2a-	4cc-X
8D-XJ	.	.
8E-L	.	2b-
8Cn	.	.
8Dn	[4g	.
8EnJ	.	.
=36	=36	=36
8FL	4g]	4an
8E-	.	.
8D-X	2f	4a-X
8CJ	.	.
8BBnL	.	[2g
8Dn	.	.
8C	8e-L	.
8BB-XJ	8dJ	.
=37	=37	=37
2AAn	4c	8g]L
.	.	8f
*	*clefF4	*
.	4C	8e-
.	.	8dJ
2AA-X	4F	8cL
.	.	8e-
.	4F#X	8d
.	.	8cJ
=38	=38	=38
2GG	12GL	4Bn
.	12D	.
.	12GJ	.
.	12BnL	4r
.	12G	.
.	12BJ	.
2BBn	12dL	2r
.	12A-X	.
.	12GJ	.
.	12FL	.
.	12E-	.
.	12DJ	.
=39	=39	=39
*	*	*Xbrackettup
2C	4E-	12r
.	.	12gL
.	.	12ccJ
.	4r	12ee-L
.	.	12cc
.	.	12dd#XJ
2En	2r	12ggL
.	.	12dd-X
.	.	12ccJ
.	.	12b-L
.	.	12a-
.	.	12gJ
!!LO:LB:g=original
=40	=40	=40
*	*Xbrackettup	*
2FF	12r	4a-
.	12CL	.
.	12FJ	.
.	12A-L	4r
.	12F	.
.	12A-J	.
2AAn	12cL	2r
.	12G-X	.
.	12FJ	.
.	12E-L	.
.	12D-X	.
.	12CJ	.
=41	=41	=41
2BB-	4D-X	12r
.	.	12fL
.	.	12b-J
.	4r	12dd-XL
.	.	12b-
.	.	12dd-J
2Dn	2r	12ffL
.	.	12cc-X
.	.	12b-J
.	.	12a-L
.	.	12g-X
.	.	12fJ
*	*clefG2	*
=42	=42	=42
4EE-	2r	8g-X
.	.	4ee-
4FF	.	.
.	.	8dd
4GGn	4r	8ee-L
.	.	8b-J
4AAn	8r	[4cc
.	8e-	.
=43	=43	=43
4BB-	8d	8cc]
.	8r	4b-
4C	4r	.
.	.	8an
4D-X	4r	8b-L
.	.	8fJ
4EEn	8r	4g
.	8d-X	.
=44	=44	=44
4FF	8c	8a-
.	8r	4ff
4GG	4r	.
.	.	8een
4AAn	4r	8ffL
.	.	8ccJ
4BBn	8r	[4dd
.	8f	.
!!LO:LB:g=original
=45	=45	=45
4C	8en	8dd]
.	8r	4cc
4D	4r	.
.	.	8bn
4E-X	4r	8ccL
.	.	8gJ
4FF#X	8r	4an
.	8e-X	.
=46	=46	=46
2GG	8d	12b-XL
.	.	12g
.	8r	.
.	.	12b-J
.	4r	12ddL
.	.	12b-
.	.	12ddJ
2BB-	8r	[2gg
.	8ddL	.
.	8cc	.
.	8b-J	.
=47	=47	=47
2D	8an	12ggL]
.	.	12ff#X
.	8r	.
.	.	12eenJ
.	4r	12ff#L
.	.	12aan
.	.	12dddJ
2E-	8r	[2ccc
.	8bb-L	.
.	8aan	.
.	8ggJ	.
=48	=48	=48
2FF#X	8aanL	2ccc_
.	8dd	.
.	8ee-	.
.	8ccJ	.
4r	4dd	8cccL]
.	.	8aanJ
4D	16r	[4bb-
.	16aanLL	.
.	16gg	.
.	16ff#XJJ	.
=49	=49	=49
2C#X	[2gg	8bb-L]
.	.	8aan
.	.	8bb-
.	.	8ggJ
2Cn	8ggL]	[2aa
.	8een	.
.	8ff#X	.
.	8aanJ	.
!!LO:LB:g=original
=50	=50	=50
2BBn	[2dd	8aanXL]
.	.	8gg
.	.	8aa-X
.	.	8ff#XJ
[2BB-X	8ddL]	4.gg
.	8cc#XJ	.
.	4dd	.
.	.	8ffn
=51	=51	=51
4BB-]	8r	[2een
.	8gL	.
4AAn	8ccn	.
.	8bnJ	.
4AA-X	[2cc	8eeL]
.	.	8dd
4GG	.	8ee-X
.	.	8ccJ
=52	=52	=52
4FF#X	8ccL]	[1dd
.	8an	.
8EEnL	8b-X	.
8DDJ	8ccJ	.
4GG	8b-L	.
.	8a	.
4C	8g	.
.	8f#XJ	.
=53	=53	=53
2BB-	4g	8ddL]
.	.	8een
*	*clefF4	*
.	4D	8ff#X
.	.	8ggJ
2AAn	4r	8ff#L
.	.	8ee
.	4F#X	8dd
.	.	8ccJ
=54	=54	=54
4GG	4G	8b-L
.	.	8g
4En	4r	8an
.	.	8b-J
4F#X	2r	8aL
.	.	8g
4AAn	.	8f#X
.	.	8enJ
!!LO:LB:g=original
=55	=55	=55
4BB-	8r	4d
.	8B-L	.
4G	8c	4r
.	8dJ	.
4An	8cL	2r
.	8B-	.
4C	8An	.
.	8GJ	.
=56	=56	=56
4D	4Fn	8r
.	.	8ddL
4B-	4r	8ee-
.	.	8ffJ
4c	4r	8ee-L
.	.	8dd
[4E-	4G	8cc
.	.	8b-J
=57	=57	=57
8E-L]	4F	8anL
8D	.	8bn
8E-	4r	8cc
8FJ	.	8ddJ
8E-L	4r	4g
8D	.	.
*	*clefG2	*
8C	4dd	[4ff
8BBnJ	.	.
=58	=58	=58
8CL	4g	8ffL]
8F	.	8dd
8G	4r	8ee-
8A-J	.	8ffJ
8GL	2r	4bn
8F	.	.
8E-	.	[4aa-X
8DJ	.	.
=59	=59	=59
4E-	2c	8aa-L]
.	.	8ff
4C	.	8gg
.	.	8aa-J
4c	2e-	8ggL
.	.	8ff
4G	.	8ee-
.	.	8ddJ
=60	=60	=60
4e-	2g	8ccL
.	.	8ee-
4c	.	8ff
.	.	8ggJ
4r	2a-	8ffL
.	.	8ee-
[4F	.	8dd
.	.	8ccJ
*	*clefF4	*
!!LO:LB:g=original
=61	=61	=61
8FL]	2Bn	4gg
8D	.	.
8E-	.	4g
8FJ	.	.
*	*clefG2	*
8E-L	4r	8ccL
8D	.	8ddJ
8C	4g	[4ee-
8BB-XJ	.	.
=62	=62	=62
8AAnL	2f#X	4ee-]
8C	.	.
8D	.	4an
8E-J	.	.
8DL	2fn	8bnL
8C	.	8ccJ
8BBn	.	[4dd
8AAnJ	.	.
=63	=63	=63
8GGL	2en	4dd]
8BBn	.	.
8C	.	4g
8DJ	.	.
8CL	[2e-X	8anL
8BB-X	.	8b-XJ
8AAn	.	[4cc
8GGJ	.	.
=64	=64	=64
4FF#X	4e-]	8ccL]
.	.	8an
4r	4d	8b-
.	.	8ccJ
4r	4d-X	8b-L
.	.	8an
4E-	4c	8g
.	.	8f#XJ
*	*clefF4	*
=65	=65	=65
8FFnL	4Bn	[1g
8D	.	.
8E-	8AnL	.
8FJ	8GJ	.
8E-L	4c	.
8D	.	.
*	*clefG2	*
8C	4f	.
8BBnJ	.	.
=66	=66	=66
8CL	2e-	4g]
8D	.	.
8E-	.	2cc
8FJ	.	.
8GL	2d	.
8A-X	.	.
8G	.	[4b-
8FJ	.	.
!!LO:LB:g=original
=67	=67	=67
8EnL	[2c	4b-]
8C	.	.
8D	.	8a-L
8EJ	.	8gJ
4F	8cL]	[2a-
.	8c	.
4FF	8d	.
.	8e-XJ	.
=68	=68	=68
4BB-	8dL	4.a-]
.	8cJ	.
4D	[4B-	.
.	.	8f#X
4E-X	8B-L]	[2g
.	8B-	.
4EE-	8c	.
.	8d-XJ	.
=69	=69	=69
4AA-	8cL	4.g]
.	8B-J	.
*	*clefF4	*
4C	[4A-	.
.	.	8en
[2D-X	8A-L]	8fL
.	8F	8a-
.	8G	8b-
.	8A-J	8ccJ
=70	=70	=70
4D-]	8GL	8b-L
.	8FJ	8a-
4Dn	[4B-	8g
.	.	8fJ
[2E-	8B-L]	8gL
.	8G	8b-
.	8A-	8cc
.	8B-J	8dd-XJ
=71	=71	=71
4E-]	8A-L	8ccL
.	8GJ	8b-
4En	[4c	8a-
.	.	8gJ
[2F	8cL]	8a-L
.	8A-	8cc
.	8B-	8ddn
.	8GJ	8eenJ
*	*clefF4	*
!!LO:LB:g=original
=72	=72	=72
4F]	8A-L	2ff
*	*clefG2	*
.	8c	.
4r	8d	.
.	8enJ	.
8r	[2f	2aa-
8d-XL	.	.
8c	.	.
8B-J	.	.
=73	=73	=73
[2A-	8fL]	2ccc
.	8e-X	.
.	8d-X	.
.	8cJ	.
*	*clefF4	*
8A-L]	[2B-	2ddd-X
8A-	.	.
8G	.	.
8FJ	.	.
=74	=74	=74
[2G	8B-L]	2een
.	8d-X	.
.	8c	.
.	8B-J	.
8GL]	[2A-	4r
8G	.	.
8F	.	4ccc
8E-XJ	.	.
=75	=75	=75
2Dn	8A-L]	2bbn
.	8A-	.
.	8G	.
.	8FJ	.
8r	2G	2bb-X
8EnL	.	.
8D	.	.
8CJ	.	.
=76	=76	=76
[2F	8FL	2aan
*	*clefG2	*
.	8c	.
.	8d	.
.	8enJ	.
8FL]	[2f	[2aa-X
8F	.	.
8G	.	.
8A-J	.	.
!!LO:LB:g=original
=77	=77	=77
[1B-	8fL]	4aa-]
.	8f	.
.	8g	4gg
.	8a-J	.
.	8b-L	4gg-X
.	8cc	.
.	8dd-X	4ff
.	8b-J	.
=78	=78	=78
8B-L]	[1cc	4een
8G	.	.
8A-	.	8ddnL
8B-J	.	8ccJ
8A-L	.	4ff
8G	.	.
8F	.	4bb-
8EnJ	.	.
=79	=79	=79
8FL	4cc]	2aa-
8En	.	.
8F	4bn	.
8GJ	.	.
8FL	8ccL	2gg
8E-X	8ddJ	.
8D	[4ee-X	.
8CJ	.	.
=80	=80	=80
8DL	8ee-L]	4ff#X
8An	8ccJ	.
8B-	4f#X	8ee-XL
8cJ	.	8ddJ
8B-L	4r	4gg
8A-X	.	.
8G	4ee-	4ccc
8F#XJ	.	.
=81	=81	=81
8GL	4dd	4bbn
8An	.	.
8B-	2gg	4bb-X
8cJ	.	.
8dL	.	4aan
8e-	.	.
8d	[4ffn	4aa-X
8cJ	.	.
!!LO:LB:g=original
=82	=82	=82
8BnL	4ff]	[2gg
8G	.	.
8An	8ee-L	.
8BJ	8ddJ	.
4c	[2ee-	8ggL]
.	.	8gg
4C	.	8aan
.	.	8bb-XJ
=83	=83	=83
4F	4.ee-]	8aanL
.	.	8ggJ
4An	.	[4ff
.	8cc#X	.
4B-	[2dd	8ffL]
.	.	8ff
4BB-	.	8gg
.	.	8aa-XJ
=84	=84	=84
4E-	4.dd]	8ggL
.	.	8ffJ
4G	.	[4ee-
*	*clefF4	*
.	8Bn	.
[2A-X	8cL	8ee-L]
*	*clefG2	*
.	8e-	8cc
.	8f	8dd
.	8gJ	8ee-J
=85	=85	=85
4A-]	8fL	8ddL
.	8e-	8ccJ
4An	8d	[4ff
.	8cJ	.
[2B-	8dL	8ffL]
.	8f	8dd
.	8g	8ee-
.	8a-XJ	8ffJ
=86	=86	=86
4B-]	8gL	8ee-L
.	8f	8ddJ
4Bn	8e-	[4gg
.	8dJ	.
4c	8e-L	8ggL]
.	8g	8ee-
4r	8an	8ff
.	8bnJ	8ddJ
!!LO:LB:g=original
=87	=87	=87
2C	12ccL	4ee-
.	12g	.
.	12ccJ	.
.	12ee-L	4r
.	12cc	.
.	12ee-J	.
2En	12ggL	2r
.	12dd-X	.
.	12ccJ	.
.	12b-XL	.
.	12a-X	.
.	12gJ	.
=88	=88	=88
2F	4a-	12r
.	.	12ccL
.	.	12ffJ
.	4r	12aa-L
.	.	12ff
.	.	12aa-J
2An	2r	12cccL
.	.	12gg-X
.	.	12ffJ
.	.	12ee-XL
.	.	12dd-X
.	.	12ccJ
=89	=89	=89
2BB-	12r	4dd-X
.	12fL	.
.	12b-J	.
.	12dd-XL	4r
.	12b-	.
.	12dd-J	.
2Dn	12ffL	2r
.	12cc-X	.
.	12b-J	.
.	12a-XL	.
.	12g-X	.
.	12fJ	.
=90	=90	=90
2C	4g-X	12r
.	.	12b-L
.	.	12ee-J
.	4r	12gg-XL
.	.	12ee-
.	.	12gg-J
2Gn	2r	12bb-L
.	.	12ff-X
.	.	12ee-J
.	.	12dd-XL
.	.	12cc-X
.	.	12b-J
=91	=91	=91
4AA-	8r	4cc-X
.	4a-	.
4BB-	.	4r
.	8g	.
4Cn	8a-L	4r
.	8e-J	.
4Dn	[4f	8r
.	.	8a-
!!LO:LB:g=original
=92	=92	=92
4E-	8f]	4g
.	4e-	.
4F	.	4r
.	8d	.
4G-X	8e-L	4r
.	8B-J	.
4AAn	4c	8r
.	.	8g-X
=93	=93	=93
4BB-	8d-X	4f
.	4b-	.
4C	.	4r
.	8an	.
4Dn	8b-L	4r
.	8fJ	.
4En	[4gn	8r
.	.	8b-
=94	=94	=94
4F	8g]	4an
.	4f	.
4G	.	4r
.	8en	.
4A-X	8fL	4r
.	8cJ	.
4BBn	4d	8r
.	.	8a-X
=95	=95	=95
2C	12e-XL	4g
.	12c	.
.	12e-J	.
.	12gL	4r
.	12e-	.
.	12gJ	.
2E-	[2cc	8r
.	.	8ggL
.	.	8ff
.	.	8ee-J
=96	=96	=96
2G	12ccL]	4dd
.	12bn	.
.	12anJ	.
.	12bL	4r
.	12dd	.
.	12ggJ	.
2A-	[2ff	8r
.	.	8ee-L
.	.	8dd
.	.	8ccJ
!!LO:LB:g=original
=97	=97	=97
2BBn	2ff]	8ddL
.	.	8g
.	.	8a-
.	.	8fJ
4r	8ffL	4g
.	8ddJ	.
4G	[4ee-	8r
.	.	8gg
=98	=98	=98
2F#X	8ee-L]	8aanL
.	8dd	8bbnJ
.	8ee-	[4ccc
.	8ccJ	.
2Fn	[2dd	8cccL]
.	.	8aa
.	.	8bb
.	.	8dddJ
=99	=99	=99
2En	8ddL]	[2gg
.	8cc	.
.	8dd-X	.
.	8bnJ	.
[2E-X	4.cc	8ggL]
.	.	8ff#XJ
.	.	[4gg
.	8b-X	.
=100	=100	=100
4E-]	[2an	8ggL]
.	.	8cc
4D	.	8ff
.	.	8eenJ
4D-X	8aL]	[2ff
.	8g	.
4C	8a-X	.
.	8fJ	.
=101	=101	=101
4BBn	[1g	8ffL]
.	.	8dd
8AAnL	.	8ee-X
8GGJ	.	8ffJ
4C	.	8ee-L
.	.	8dd
4F	.	8cc
.	.	8bnJ
!!LO:LB:g=original
=102	=102	=102
2E-	4g]	8ccL
.	.	8bn
.	2ff#X	8cc
.	.	8ddJ
2Dt	.	8ccL
.	.	8b-X
.	[4gg	8an
.	.	8gJ
=103	=103	=103
4C#X	8ggL]	2.an
.	8een	.
8BBnL	8ffn	.
8AAnJ	8ggJ	.
4D	8ffL	.
.	8ee	.
4G	8dd	4bb-X
.	8cc#XJ	.
=104	=104	=104
4F#X	8ddL	4aan
.	8ccn	.
4Fn	8b-	2dd
.	8anJ	.
4En	8gL	.
.	8b-	.
4E-X	8a-X	[4cc
.	8gJ	.
=105	=105	=105
[1D	4f#X	8ccL]
.	.	8an
.	4d	8b-
.	.	8gJ
.	4c#X	8enL
.	.	8b-
.	4cn	8an
.	.	8e-XJ
*	*clefF4	*
=106	=106	=106
1D_	8BnL	4d
.	8An	.
.	8B-X	4dd
*	*clefG2	*
.	8gJ	.
*	*clefF4	*
.	8AL	4cc#X
*	*clefG2	*
.	8g	.
.	8f#	4ccn
*	*clefF4	*
.	8AJ	.
!!LO:LB:g=original
=107	=107	=107
4D]	4.G	8bnL
.	.	8anJ
4D	.	[4b-X
.	8F#X	.
4C#X	4.G	8b-L]
.	.	8aJ
4Cn	.	[4ee-
*	*clefG2	*
.	8f#X	.
=108	=108	=108
8BBnL	4.g	8ee-L]
8AAn	.	8ddJ
8BB-X	.	4gg
8GJ	8ee-	.
8AAL	(8ddL	4r
8G	8cc#XJ)	.
8D	8r	8aanL
8F#XJ	8an	8ccJ
=109	=109	=109
4GG	(8anL	(8ccL
.	8gJ)	8b-J)
4B-	4r	4r
4En	8r	8r
.	8b-L	8dd-XL
4G	8a-X	8cc
.	8gJ	8b-J
=110	=110	=110
4C	8r	8r
.	8d-XL	8b-L
8DnL	8c	8a-
8EnJ	8B-J	8gJ
*	*clefF4	*
8FL	8r	8r
8EJ	8B-L	8gL
[4F	8A-	8f
.	8GJ	8enJ
=111	=111	=111
4F]	(8GL	(8enL
.	8A-J)	8fJ)
*	*clefG2	*
4A-	8r	8r
.	8cc-X	8ddn
4D	8r	8r
.	8cc-	8ff
4F	8r	8r
.	8cc-	8dd
!!LO:LB:g=original
=112	=112	=112
4BB-	8r	8r
.	8aa-L	8cccnL
8CL	8gg	8bb-
8DJ	8ffJ	8aa-J
8E-XL	8r	8r
8DJ	8ffL	8aa-L
[4E-	8ee-	8gg
.	8ddJ	8ffJ
=113	=113	=113
8E-L]	(8ddL	(8ffL
8D	8ee-J)	8ggJ)
8E-	4r	8r
8FJ	.	8cc
8E-L	4r	(8ccL
8D	.	8bnJ)
8C	8r	[4ff
8BBnJ	8a-	.
=114	=114	=114
8CL	(8a-L	4ff]
8BBn	8gJ)	.
8C	4r	8ee-L
8D-XJ	.	8a-J
8CL	4r	(8a-L
8BB-X	.	8gJ)
8AA-	8r	[4dd-X
8GGJ	8b-	.
=115	=115	=115
4AA-	8b-L	4dd-]
.	8e-J	.
4C	4a-	8ccL
.	.	8ee-J
4E-	4r	8ddnL
.	.	8dd-X
4F	8r	8cc
.	8dn	8cc-XJ
=116	=116	=116
4GG	(8dL	(8cc-XL
.	8e-J)	8b-J)
4BB-	8r	4r
.	8b-	.
4D	8anL	4r
.	8a-X	.
4E-	8g	8r
.	8g-XJ	8ee-
!!LO:LB:g=original
=117	=117	=117
4FF	(8g-XL	(8ee-L
.	8fJ)	8ddJ)
*	*clefF4	*
4AA-	8r	8r
.	8c	8a-
4C	8BnL	8gnL
.	8B-X	8g-X
4F	8An	8f
.	8A-XJ	8f-XJ
=118	=118	=118
4EE-	(8A-L	(8f-XL
.	8GnJ)	8e-J)
4E-	4G	8r
.	.	8e-
4D	4A-	8f-XL
.	.	8fn
4D-X	4B-	8g-X
.	.	8gnJ
=119	=119	=119
4C	4E-	8a-L
.	.	8g
*	*clefG2	*
4AA-	8r	8g-X
.	8c	8fJ
4GG	8d-XL	[2b-
.	8dn	.
4GG-X	8e-	.
.	8enJ	.
=120	=120	=120
4FF	8fL	8b-L]
.	8en	8gn
4F	8f	8a-
*	*clefF4	*
.	8A-J	8fJ
4En	4B-	8g-XL
.	.	8gn
4E-X	4c	8a-
.	.	8anJ
=121	=121	=121
4D	4F	8b-L
.	.	8an
*	*clefG2	*
4BB-	8r	8a-X
.	8d	8gJ
4AAn	8e-L	[2cc
.	8en	.
4AA-X	8f	.
.	8f#XJ	.
!!LO:LB:g=original
=122	=122	=122
4GG	8gL	8ccL]
.	8f#XJ	8anJ
4G	4g	4b-
4F#X	4r	2r
4Fn	8r	.
.	8d	.
=123	=123	=123
4En	8c#XL	4r
.	8cn	.
2E-X	8Bn	4g
.	8B-XJ	.
*	*clefF4	*
.	8AnL	4f#X
.	8B-	.
8DL	8Bn	[4fn
8CJ	8cJ	.
=124	=124	=124
8BBnL	4d	4f]
16AAnL	.	.
16GGJJ	.	.
8CL	2c	8e-L
8FJ	.	8dJ
4E-	.	12e-L
.	.	12f
.	.	12gJ
4D	4Bn	12a-L
.	.	12g
.	.	12fJ
=125	=125	=125
8CL	4c	4e-
8D	.	.
*	*clefG2	*
8E-	8r	4cc
8CJ	[8a-	.
8D-XL	8a-L]	4bn
8Dn	16gL	.
.	16fJJ	.
8E-	[4g	4b-X
8EnJ	.	.
=126	=126	=126
8FL	8gL]	4an
8C	16fL	.
.	16e-JJ	.
8F	8dL	2a-X
8E-XJ	8cJ	.
*	*clefF4	*
8DL	4Bn	.
8C	.	.
8D-X	[4B-X	8gL
8BB-J	.	8fJ
!!LO:LB:g=original
=127	=127	=127
[2C	4B-]	8enL
.	.	16dL
.	.	16cJJ
.	8A-L	8fL
.	8GJ	8b-J
12CL]	4F	4a-
12BB-	.	.
12CJ	.	.
12D-XL	4En	4g
12C	.	.
12BB-J	.	.
=128	=128	=128
4AA-	4F	12fL
.	.	12g
.	.	12a-J
*	*clefG2	*
4C	8r	12b-L
.	.	12a-
.	8en	.
.	.	12gJ
[2FF	4f	12a-L
.	.	12b-
.	.	12ccJ
.	8r	12dd-XL
.	.	12cc
.	8g	.
.	.	12b-J
=129	=129	=129
8FFL]	4a-	4cc
8GG	.	.
8AA-	8r	[4ff
8BB-J	8a-	.
8CL	4g	4ff]
8AA-	.	.
8BB-	4g-X	[4ee-
8CJ	.	.
=130	=130	=130
4D-X	4f	8ee-L]
.	.	8dd-X
4E-	2e-	8cc
.	.	8b-J
8FL	.	8a-L
8E-J	.	8cc-X
4F	4dn	8b-
.	.	8a-J
=131	=131	=131
8E-L	4g	4b-
8FF	.	.
8GG-X	8r	2ee-
8AA-J	8g-X	.
8BB-L	4f	.
8GGn	.	.
8AA-	4f-X	[4dd-X
8BB-J	.	.
!!LO:LB:g=original
=132	=132	=132
4C	4e-	8dd-XL]
.	.	8cc
4D-X	2d-X	8b-
.	.	8a-J
8E-L	.	8g-XL
8D-XJ	.	8b--
4E-	4c	8a-
.	.	8g-J
=133	=133	=133
8D-XL	4f	4a-
8EE-	.	.
8FF-X	8r	2dd-X
8GG-XJ	8f-X	.
8AA-L	2e-	.
8FFn	.	.
8GGn	.	[4cc
8AAnJ	.	.
=134	=134	=134
8BB-L	4d	4cc]
8AA-X	.	.
8GG-X	4d-X	2b-
8FFJ	.	.
8EEnL	[2c	.
8GGn	.	.
8FF	.	8a-L
8EE-XJ	.	8gJ
=135	=135	=135
4DD-X	8cL]	2f
*	*clefF4	*
.	8c	.
4FF	8B-	.
.	8A-J	.
4BB-	8G-XL	4r
.	8F	.
4D-X	8En	[4b-
.	8FJ	.
=136	=136	=136
4GG	2En	8b-L]
.	.	8a-
4.C	.	8g
.	.	8fJ
.	2r	8enL
8BB-L	.	8dd-X
8AA-	.	8cc
8GGJ	.	8b-J
*	*clefG2	*
!!LO:LB:g=original
=137	=137	=137
4FF	4r	8a-L
.	.	8g
4AA-	[4f	8f
.	.	8gJ
4D-X	8fL]	[2a-
.	8en	.
4F	8e-X	.
.	8dnJ	.
=138	=138	=138
4BB-	4d-X	8a-L]
.	.	8cc
*	*clefF4	*
4.E-	4G	8b-
.	.	8a-J
.	4B-	8gL
8D-XL	.	8ff
8C	4r	8ee-
8BB-J	.	8dd-XJ
*	*clefG2	*
=139	=139	=139
4AA-	4r	8ccL
.	.	8b-
4C	8r	8a-
.	[8b-	8b-J
4F	8b-L]	[2cc
.	8a-	.
4A-	8g	.
.	8f#XJ	.
=140	=140	=140
4Dn	8fnL	4cc]
.	8a-	.
4.G	8g	4bn
.	8fJ	.
.	8e-L	2r
8FL	8d	.
8E-	8c	.
8DJ	8BnJ	.
=141	=141	=141
8E-L	8c	2cc
8C	8r	.
8BB-	4r	.
8AA-J	.	.
8GGL	8r	2ee-
8FF	8bnL	.
8EE-	8cc	.
8DDJ	8ddJ	.
!!LO:LB:g=original
=142	=142	=142
8CCL	4ee-	2gg
8C	.	.
8D	2cc	.
8E-J	.	.
8FL	.	2aa-
8G	.	.
8A-	[4ff	.
8FJ	.	.
=143	=143	=143
4G	8ffL]	2bn
.	8dd	.
4GG	8ee-	.
.	8ffJ	.
8CL	8ee-L	4r
8DJ	8dd	.
[4E-	8cc	4gg
.	8b-XJ	.
=144	=144	=144
4E-]	8anL	2ff#X
.	8cc	.
4AAn	8dd	.
.	8ee-J	.
8BBnL	8ddL	2ffn
8CJ	8cc	.
[4D	8bnX	.
.	8anJ	.
=145	=145	=145
4D]	8gL	2een
.	8bn	.
4GG	8cc	.
.	8ddJ	.
8AAnL	8ccL	[2ee-X
8BB-XJ	8b-X	.
[4C	8an	.
.	8gJ	.
=146	=146	=146
8CL]	4f#X	4ee-]
8AAn	.	.
8BB-	2g	4dd
8CJ	.	.
8BB-L	.	4dd-X
8AA-X	.	.
8GG	[4a-X	4cc
8FF#XJ	.	.
!!LO:LB:g=original
=147	=147	=147
4GG	8a-L]	4bn
.	8d	.
4r	8e-	8anL
.	8fJ	8gJ
4r	8e-L	4cc
.	8d	.
*	*clefF4	*
4G	8c	4ff
.	8BnJ	.
=148	=148	=148
4A-X	8cL	2ee-
*	*clefG2	*
.	8f	.
4F	8g	.
.	[8a-J	.
[2B-	8a-L]	4dd
.	8a-	.
.	8g	4dd-X
.	8fJ	.
=149	=149	=149
4B-]	2en	8ccL
.	.	8gg
4G	.	8aa-
.	.	8bb-J
[2c	2e-X	8aa-L
.	.	8gg
.	.	8ff#X
.	.	8ggJ
=150	=150	=150
4c]	8dL	[2ff#X
.	8cc	.
4An	8dd	.
.	8ee-J	.
[2d	8ddL	8ff#L]
.	8cc	8ff#
.	8b-	8gg
.	8anJ	8aanJ
=151	=151	=151
2d]	8b-L	8ggL
.	8g	8ffn
.	8an	8ee-
.	8b-J	8ddJ
[2c	8a-XL	8ee-L
.	8g	8cc
.	8f#X	8dd
.	8gJ	8ee-J
!!LO:LB:g=original
=152	=152	=152
8cL]	4f#X	[2dd
8An	.	.
8B-	8gL	.
8cJ	8anJ	.
8B-L	4d	8ddL]
8A	.	8cc
8G	4r	8b-
8F#XJ	.	8anJ
=153	=153	=153
8GL	2g	8b-L
8F#X	.	8ddJ
8G	.	4gg
8AnJ	.	.
8GL	2b-	8ddL
8Fn	.	8ggJ
8E-	.	[4bb-
8DJ	.	.
=154	=154	=154
4E-	2cc	8bb-L]
.	.	8gg
4C	.	8aan
.	.	[8bb-J
*clefC3	*	*
[2cc	2ee-	8bb-L]
.	.	16aanL
.	.	16ggJJ
.	.	16ff#XLL
.	.	16ggJ
.	.	8aaJ
=155	=155	=155
8ccL]	2f#X	4dd
8an	.	.
8b-	.	4ddd
8ccJ	.	.
8b-L	4r	8ggL
8a	.	8aanJ
8g	4dd	[4bb-
8fnJ	.	.
=156	=156	=156
8enL	2cc#X	4bb-]
8g	.	.
8an	.	4een
8b-J	.	.
8aL	2ccn	8ff#XL
8g	.	8ggJ
8f#X	.	[4aan
8enJ	.	.
!!LO:LB:g=original
=157	=157	=157
8dL	2bn	4aanX]
8f#X	.	.
8g	.	4dd
8anJ	.	.
8gL	[2b-X	8eenL
8fn	.	8ffnJ
8en	.	[4gg
8dJ	.	.
=158	=158	=158
4c#X	4b-]	8ggL]
.	.	8een
4r	4an	8ff
.	.	8ggJ
4r	4a-X	8ffL
.	.	8een
4b-	4g	8dd
.	.	8cc#XJ
=159	=159	=159
8cnL	4f#X	[1dd
8An	.	.
8B-	8enL	.
8cJ	8dJ	.
8B-L	4g	.
8A	.	.
8G	4cc	.
8F#XJ	.	.
*clefF4	*	*
=160	=160	=160
8GL	2b-	4dd]
8F	.	.
8E-	.	2gg
8DJ	.	.
8CL	2an	.
8BB-	.	.
8C	.	4ff#X
8DJ	.	.
=161	=161	=161
8GGL	4g	4gg
8G	.	.
8F#X	4r	4ddd'
8E-J	.	.
8B-L	4r	4gg'
8d	.	.
8G	4dd-X	4bb-'
8B-J	.	.
!!LO:LB:g=original
=162	=162	=162
2c	4g	8eenL
.	.	8ff
.	4b-	8gg
.	.	8eeJ
4r	8enL	4cc
.	8f	.
4c	8g	[4bb-
.	8eJ	.
=163	=163	=163
4A-X	4c	4bb-]
4c	8dL	8aa-XL
.	8enJ	8ggJ
4F	[2f	8aa-L
.	.	8gg
8GL	.	8ff
8A-J	.	8ee-XJ
=164	=164	=164
2B-	4f]	8ddL
.	.	8ee-
.	4a-	8ff
.	.	8ggJ
4r	8dL	8aa-L
.	8e-	8ggJ
4B-	8f	[4aa-
.	8dJ	.
=165	=165	=165
4G	4B-	4aa-]
4B-	8cL	8ggL
.	8dJ	8ffJ
4E-	[2e-	8ggL
.	.	8ff
8FL	.	8ee-
8GJ	.	8ddJ
=166	=166	=166
2A-	4e-]	4cc
.	8dL	8ddL
.	8cJ	8ee-J
4r	8dL	[2ff
.	8c	.
*	*clefF4	*
4D	8Bn	.
.	8AnJ	.
=167	=167	=167
4E-	4G	4ff]
4G	8AnL	8ee-L
.	8BnJ	8ddJ
4C	[2c	8ee-L
.	.	8dd
8DL	.	8cc
8EnJ	.	8b-XJ
!!LO:LB:g=original
=168	=168	=168
8FL	4c]	4an
8E-X	.	.
8D	4Bn	4a-X
8FJ	.	.
8E-L	4c	4g
8D	.	.
8C	4d	[4f
8BBnJ	.	.
=169	=169	=169
2C	4G	2f_
.	8AnL	.
.	8BnJ	.
2E-	8cL	4.f]
.	8BJ	.
.	[4c	.
.	.	8e-
=170	=170	=170
2G	8cL]	4d
.	8Bn	.
.	8An	2g
.	8BJ	.
*	*clefG2	*
2A-X	8cL	.
.	8e-	.
.	8d	4f#X
.	8cJ	.
=171	=171	=171
2BBn	4d	8gL
.	.	8dd
*	*clefF4	*
.	4G	8ee-
.	.	8ffJ
4r	8cL	8ee-L
.	8dJ	8dd
*	*clefG2	*
4G	[4e-	8cc
.	.	8b-XJ
=172	=172	=172
2F#X	4e-]	8anL
.	.	8cc
*	*clefF4	*
.	4An	8dd
.	.	8ee-J
2Fn	8BnL	8ddL
.	8cJ	8cc
.	[4d	8bn
.	.	8anJ
=173	=173	=173
2En	4d]	8gL
.	.	8bn
.	4G	8cc
.	.	8ddJ
[2E-X	8AnL	8ccL
.	8B-XJ	8b-X
.	[4c	8an
.	.	8gJ
!!LO:LB:g=original
=174	=174	=174
4E-]	8cL]	2f#X
.	8An	.
4D	8B-	.
.	8cJ	.
4D-X	8B-L	4r
.	8An	.
4C	8G	4ee-
.	8F#XJ	.
=175	=175	=175
4BBn	[1G	8fnL
.	.	8d
8AAnL	.	8e-
8GGJ	.	8fJ
4C	.	8e-L
.	.	8d
4F	.	8c
.	.	8BnJ
=176	=176	=176
2E-	4G]	8cL
.	.	8f
.	2c	8g
.	.	8a-J
2D	.	8gL
.	.	8f
.	4Bn	8e-
.	.	8dJ
=177	=177	=177
[1C	8cL	[2e-
.	8G	.
.	8A-X	.
.	8B-XJ	.
.	8A-L	8e-L]
.	8G	8b-
.	8F	8a-
.	8E-J	8gJ
=178	=178	=178
2C]	8DL	8f#XL
.	8F#X	8ee-J
.	8G	[4dd
.	8AnJ	.
[2BB-X	8GL	8ddL]
.	8Fn	8aa-X
.	8En	8gg
.	8DJ	8ffnJ
=179	=179	=179
2BB-]	8CL	8eenL
.	8En	8ddd-XJ
.	8F	[4ccc
.	8GJ	.
2AA-	8FL	4ccc]
.	8E-X	.
.	8Dn	[4ff
.	8CJ	.
!!LO:LB:g=original
=180	=180	=180
[1GG	4BBn	8ffL]
.	.	8dd
.	4G	8ee-X
.	.	8ccJ
.	4F#X	8anL
.	.	8ee-
.	4Fn	8dd
.	.	8a-XJ
=181	=181	=181
1GG_	8EnL	8gL
.	8D	8f#XJ
.	8E-X	4g
.	8cJ	.
.	8DL	4f#
.	8c	.
.	8Bn	4fn
.	8DJ	.
=182	=182	=182
4GG]	4.C	8enL
.	.	8dJ
4GG	.	[4e-X
.	8BBn	.
4FF#X	4.C	8e-]L
.	.	8dJ
4FFn	.	[4a-
.	8Bn	.
=183	=183	=183
8EEnL	4.c	8a-L]
8DD	.	8gJ
8EE-X	.	4cc
*	*clefG2	*
8CJ	8a-	.
8DDL	8gL	4r
8C	8f#XJ	.
8GG	8r	8ddL
8BBnJ	8d	8fnJ
=184	=184	=184
4C	8dL	8fL
.	8cJ	8e-J
4AA-	8r	8r
.	8e-	8cc
4FF	8r	8r
.	8d	8cc
4GG	8r	8r
.	8f	8bn
=185	=185	=185
.	(4qqf/	(4qqbn/
2CC	2en)	2cc)
2r	2r	2r
==	==	==
*-	*-	*-
!!!system-decoration: [(s1,s2,s3)]
!!!URL-pdf: https://s9.imslp.org/files/imglnks/usimg/5/55/IMSLP10042-BWV1079-b.pdf#page=3 @{SMS}
!!!URL-pdf: https://www.youtube.com/watch?v=BtnZmHj3d70 Doeselaar/Malinowski
!!!SMS: Bach-Gesellschaft Ausgabe, Band 31.2 Leipzig: Breitkopf und Härtel, 1885. Plate B.W. XXXI(2).
!!!PED: Alfred Döffel
!!!PED-ODT: 1821-1905
!!!ENC: Craig Stuart Sapp
!!!END: 2024/03/21
!!!EED: Craig Stuart Sapp
!!!EEV: 2024/03/28
!!!title: @{OPR} (@{SCA}), @{OTL}
!!!filter-keyboard: sab2gs
